usr/share/icons/biglinux-icons-material/22/actions/kstars_cbound.svg

<svg xmlns="http://www.w3.org/2000/svg" viewBox="0 0 22 22">
  <defs id="defs3051">
    <style type="text/css" id="current-color-scheme">
      .ColorScheme-Text {
        color:#dedede;
      }
      </style>
  </defs>
 <path 
     style="fill:currentColor;fill-opacity:1;stroke:none" 
     d="M 8 3 A 5 5 0 0 1 7.9160156 3.8847656 A 5.0000172 5.0000172 0 0 1 7.8046875 4.3691406 A 5.0000172 5.0000172 0 0 1 7.8046875 4.3710938 A 5.0000172 5.0000172 0 0 1 7.6425781 4.8457031 A 5.0000172 5.0000172 0 0 1 7.6425781 4.8476562 A 5 5 0 0 1 5.0449219 7.5546875 A 5.0000172 5.0000172 0 0 1 4.5898438 7.734375 A 5.0000172 5.0000172 0 0 1 4.5800781 7.7382812 A 5 5 0 0 1 4.5683594 7.7421875 A 5.0000172 5.0000172 0 0 1 4.1132812 7.8691406 A 5.0000172 5.0000172 0 0 1 4.0976562 7.8730469 A 5 5 0 0 1 3 8 L 3 9 A 6.0000172 6.0000172 0 0 0 4.4140625 8.8242188 L 5.3652344 11.675781 C 4.599513 11.887324 3.8039853 11.99821 3 12 L 3 12.662109 C 4.6837004 12.662245 6.3324573 12.247824 7.8007812 11.474609 L 8.4707031 12.527344 L 9.0078125 13.369141 L 9.0078125 13.371094 A 12 12 0 0 0 9.8515625 12.835938 L 9.8476562 12.830078 C 11.92152 11.383472 13.540905 9.29091 14.375 6.7714844 L 16.529297 7.3867188 L 17.269531 7.6347656 C 17.744348 6.1595298 17.997494 4.5541806 18 3 L 17 3 C 16.996288 4.11636 16.845447 5.2622536 16.574219 6.359375 L 8.8808594 4.1601562 A 6.0000172 6.0000172 0 0 0 9 3 L 8 3 z M 8.609375 5.1230469 L 13.417969 6.4980469 C 12.653436 8.7774086 11.18735 10.673338 9.3125 11.990234 L 8.6640625 10.970703 L 8.2402344 10.302734 A 9 9 0 0 1 7.5410156 10.753906 C 7.1463651 10.986022 6.7333735 11.178486 6.3105469 11.347656 L 5.3652344 8.5117188 A 6.0000172 6.0000172 0 0 0 8.609375 5.1230469 z M 12.123047 10.789062 A 12 12 0 0 1 11.441406 11.521484 L 12.892578 12.869141 C 10.278577 15.492106 6.7303016 16.996928 3 17 L 3 18 C 7.0072239 17.993541 10.816243 16.368376 13.617188 13.541016 L 15.826172 15.59375 A 18 18 0 0 1 11.189453 19 L 13.208984 19 A 19 19 0 0 0 16.554688 16.271484 L 16.564453 16.279297 A 19 19 0 0 0 17.246094 15.546875 L 17.240234 15.542969 A 19 19 0 0 0 19 13.246094 L 19 11.207031 A 18 18 0 0 1 16.492188 14.847656 L 14.3125 12.822266 L 13.585938 12.148438 L 12.123047 10.789062 z "
     class="ColorScheme-Text"
     />
</svg>

<svg xmlns="http://www.w3.org/2000/svg" viewBox="0 0 22 22"><path d="M8 3a5 5 0 0 1-.084.885 5 5 0 0 1-.111.484 5 5 0 0 1 0 .002 5 5 0 0 1-.162.475 5 5 0 0 1 0 .002 5 5 0 0 1-2.598 2.707 5 5 0 0 1-.455.18 5 5 0 0 1-.01.003 5 5 0 0 1-.012.004 5 5 0 0 1-.455.127 5 5 0 0 1-.015.004A5 5 0 0 1 3 8v1a6 6 0 0 0 1.414-.176l.951 2.852A8.959 8.959 0 0 1 3 12v.662a10.31 10.31 0 0 0 4.8-1.187l.67 1.052.538.842v.002a12 12 0 0 0 .844-.535l-.004-.006a11.965 11.965 0 0 0 4.527-6.059l2.154.616.74.248c.475-1.475.728-3.08.731-4.635h-1a14.322 14.322 0 0 1-.426 3.36l-7.693-2.2A6 6 0 0 0 9 3H8zm.61 2.123 4.808 1.375a10.968 10.968 0 0 1-4.105 5.492l-.649-1.02-.424-.667a9 9 0 0 1-.699.45 9.039 9.039 0 0 1-1.23.595l-.946-2.836A6 6 0 0 0 8.61 5.123zm3.513 5.666a12 12 0 0 1-.682.732l1.452 1.348A13.986 13.986 0 0 1 3 17v1a14.983 14.983 0 0 0 10.617-4.459l2.21 2.053A18 18 0 0 1 11.188 19h2.02a19 19 0 0 0 3.346-2.729l.01.008a19 19 0 0 0 .681-.732l-.006-.004A19 19 0 0 0 19 13.246v-2.039a18 18 0 0 1-2.508 3.64l-2.18-2.025-.726-.674-1.463-1.359z" style="fill:currentColor;fill-opacity:1;stroke:none;color:#dedede"/></svg>
